X:2136
T:George Riley 
C:George Moore, Balladoole 
C:Traditional
O:Isle of Man
Z:Clague collection
B:Kiaull Vannin #136 
M:2/4 
L:1/4
Q:60 
K:G 
d/>c|B A/G/|B d|c c|B G/B/|c/A/ F/A/|G G|G2-|G |
||:d/c/|B A/G/|B c|d e|=f e/d/|e A|A B/c/|!D.C.!d3!fine!:| 

